X: 1
T: The Maid Behind The Bar
R: reel
M: 4/4
L: 1/8
K: Dmaj
|:"D"FAAB AFED|FAAF A2de|"Bm"fBBA B2de|f2af efdB|
"D"A3B AFED|FAAF A2de|"Bm"fBBA B2dB|"A"AFEF "D"D4:|
|:"D"a3g fdde|fdd2 efga|"Em"efga beef|gebe geg2|
"D"faaf def/2e/2d|defd "A"e2de|"Bm"fBBA B2dB|"A"AFEF "D"D4:|
